X: 15
T: Staten Island $1(R-6)
I: Staten Island	R-6	D	reel
M: C|
R: reel
K: D
AG| "D"FDFG A2A2| dfed "D7"dcBA| "G"B2GB "D"A2FA| "A"G2E2 E2AG|
    "D"FDFG A2A2| dfed "D7"dcBA| "D"d2d2 "A"efge| "D"f2d2 d2 :|
|:fg| "D"a2fa "A"g2eg| "D"f2df "A"ecA2| "C"=c2c2 efge| =c2c2 efge|
    "D"a2fa "A"g2eg| "D"f2df "A"ecA2| "D"d2d2 "A"efge| "D"f2d2 d2 :|
%%scale .5
%%text 08/29/98 

#include "LeftHeader.h"
%footer 05/27/09 For use only by Roaring Jelly members
% ----------set 12 ----------
% Irishman's Heart (A) / Connaughtman's Ramble's (D) / Caliope House (E)
%%text Set 12
%%vskip -1cm
%%scale .74
